lib/brands/logos/dbt-labs.svg

<svg xmlns="http://www.w3.org/2000/svg" fill="none" aria-hidden="true" viewBox="0 0 171 70"><g id="dbt Labs"><g id="Group"><g id="Vector"><path fill="#262A38" d="M166.518 54.7227L166.195 55.6317H166.075L165.752 54.725V55.6317H165.544V54.3928H165.802L166.135 55.3133L166.467 54.3928H166.725V55.6317H166.518V54.7227ZM165.362 54.5797H165.023V55.6317H164.813V54.5797H164.471V54.3928H165.362V54.5797Z"/><path fill="#262A38" d="M108.298 13.8238V55.29H99.894V51.061C99.0152 52.5439 97.7524 53.7522 96.2142 54.5211C94.5667 55.3449 92.6992 55.7843 90.8323 55.7843C88.5254 55.8392 86.2185 55.1801 84.2963 53.862C82.3194 52.5439 80.7813 50.7315 79.7925 48.5895C78.6944 46.118 78.145 43.4818 78.1996 40.7905C78.145 38.0994 78.6944 35.4631 79.7925 33.0466C80.7813 30.9595 82.3194 29.1471 84.2416 27.8839C86.2185 26.6207 88.5254 26.0165 90.8323 26.0714C92.6445 26.0714 94.4567 26.4559 96.0496 27.2797C97.5877 28.0486 98.8505 29.202 99.7293 30.63V16.6248L108.298 13.8238ZM98.1918 47.1066C99.2899 45.6786 99.894 43.5916 99.894 40.9004C99.894 38.2092 99.3453 36.1771 98.1918 34.7491C97.0383 33.3211 95.2255 32.4973 93.3586 32.5522C91.4911 32.4424 89.6789 33.2662 88.4701 34.6942C87.3173 36.1222 86.7126 38.1543 86.7126 40.7905C86.7126 43.4818 87.3173 45.5688 88.4701 47.0517C89.6235 48.5346 91.4911 49.3584 93.3586 49.3035C95.4455 49.3035 97.093 48.5346 98.1918 47.1066Z"/><path fill="#262A38" d="M138.34 27.8289C140.317 29.0921 141.855 30.9046 142.789 32.9916C143.887 35.4082 144.436 38.0444 144.381 40.7357C144.436 43.4268 143.887 46.118 142.789 48.5346C141.8 50.6765 140.262 52.489 138.285 53.8071C136.363 55.0703 134.056 55.7294 131.749 55.6745C129.882 55.7294 128.014 55.29 126.367 54.4113C124.829 53.6423 123.566 52.4341 122.742 50.9512V55.2351H114.284V16.6248L122.797 13.8238V30.7398C123.621 29.2569 124.884 28.0486 126.422 27.2797C128.07 26.401 129.882 25.9616 131.749 26.0165C134.056 25.9616 136.363 26.6207 138.34 27.8289ZM134.166 47.0517C135.319 45.5688 135.869 43.4818 135.869 40.7357C135.869 38.0994 135.319 36.0672 134.166 34.6393C133.012 33.2113 131.419 32.4973 129.332 32.4973C127.466 32.3875 125.653 33.2113 124.445 34.6942C123.291 36.1771 122.742 38.2092 122.742 40.8455C122.742 43.5367 123.291 45.6237 124.445 47.0517C125.598 48.5346 127.41 49.3584 129.332 49.2486C131.2 49.3584 133.012 48.5346 134.166 47.0517Z"/><path fill="#262A38" d="M156.135 33.1014V44.1957C156.135 45.7885 156.574 46.9419 157.344 47.6558C158.222 48.4248 159.375 48.8092 160.584 48.7543C161.517 48.7543 162.506 48.5895 163.385 48.3698V54.9605C161.792 55.5097 160.144 55.7843 158.496 55.7294C154.982 55.7294 152.29 54.7408 150.423 52.7636C148.556 50.7864 147.622 47.9854 147.622 44.3605V20.03L156.135 17.2839V26.7305H163.385V33.1014H156.135Z"/></g><path id="Vector_2" fill="#FF694A" d="M62.4376 6.95849C63.8655 8.33154 64.7992 10.144 65.0189 12.1212C65.0189 12.945 64.7992 13.4942 64.3049 14.5378C63.8106 15.5813 57.7142 26.1263 55.9018 29.0372C54.8583 30.7398 54.3091 32.7719 54.3091 34.7491C54.3091 36.7812 54.8583 38.7584 55.9018 40.461C57.7142 43.3719 63.8106 53.9718 64.3049 55.0153C64.7992 56.0589 65.0189 56.5531 65.0189 57.377C64.7992 59.3542 63.9204 61.1666 62.4925 62.4848C61.1194 63.9127 59.307 64.8464 57.3847 65.0112C56.5609 65.0112 56.0117 64.7915 55.0231 64.2972C54.0345 63.8029 43.2698 57.8713 40.3588 56.0589C40.1392 55.949 39.9195 55.7843 39.6449 55.6744L25.2553 47.1615C25.5848 49.9076 26.7931 52.5439 28.7703 54.4661C29.1548 54.8506 29.5392 55.1801 29.9786 55.5096C29.649 55.6744 29.2646 55.8392 28.9351 56.0589C26.0242 57.8713 15.4242 63.9677 14.3807 64.4619C13.3372 64.9563 12.8429 65.1759 11.9641 65.1759C9.98693 64.9563 8.1745 64.0775 6.85636 62.6495C5.42839 61.2765 4.49471 59.4641 4.27502 57.4868C4.32995 56.663 4.54964 55.8392 4.98901 55.1252C5.48331 54.0817 11.5797 43.4817 13.3921 40.5708C14.4356 38.8682 14.9848 36.891 14.9848 34.8589C14.9848 32.8268 14.4356 30.8496 13.3921 29.147C11.5797 26.1263 5.42839 15.5263 4.98901 14.4828C4.54964 13.7688 4.32995 12.945 4.27502 12.1212C4.49471 10.144 5.37347 8.33154 6.80144 6.95849C8.1745 5.53051 9.98693 4.65176 11.9641 4.43207C12.7879 4.48699 13.6118 4.70668 14.3807 5.14606C15.2595 5.53051 23.0034 10.0341 27.1226 12.4507L28.0563 12.9999C28.3858 13.2196 28.6605 13.3844 28.8801 13.4942L29.3195 13.7688L43.9837 22.4465C43.6542 19.1512 41.9516 16.1305 39.3153 14.0984C39.6449 13.9336 40.0293 13.7688 40.3588 13.5491C43.2698 11.7367 53.8697 5.58543 54.9132 5.14606C55.6272 4.70668 56.451 4.48699 57.3298 4.43207C59.2521 4.65176 61.0645 5.53051 62.4376 6.95849ZM35.4158 38.7035L38.5464 35.5729C38.9858 35.1335 38.9858 34.4745 38.5464 34.0351L35.4158 30.9045C34.9765 30.4651 34.3175 30.4651 33.8781 30.9045L30.7475 34.0351C30.3081 34.4745 30.3081 35.1335 30.7475 35.5729L33.8781 38.7035C34.2625 39.0879 34.9765 39.0879 35.4158 38.7035Z"/></g></g></svg>

<svg xmlns="http://www.w3.org/2000/svg" fill="none" aria-hidden="true" viewBox="0 0 171 70"><path fill="#262A38" d="m166.518 54.723-.323.909h-.12l-.323-.907v.907h-.208v-1.24h.258l.332.921.333-.92h.258v1.239h-.207v-.91Zm-1.156-.143h-.339v1.052h-.21V54.58h-.342v-.187h.891v.187Zm-57.065-40.756V55.29h-8.403v-4.229c-.879 1.483-2.142 2.691-3.68 3.46a12.114 12.114 0 0 1-5.382 1.263 11.118 11.118 0 0 1-6.536-1.922 12.701 12.701 0 0 1-4.504-5.273 18.218 18.218 0 0 1-1.592-7.798 17.812 17.812 0 0 1 1.592-7.744c.99-2.087 2.527-3.9 4.45-5.163 1.976-1.263 4.283-1.867 6.59-1.813 1.813 0 3.625.385 5.218 1.209a9.038 9.038 0 0 1 3.68 3.35V16.625l8.567-2.801ZM98.192 47.107c1.098-1.428 1.702-3.515 1.702-6.207 0-2.69-.549-4.723-1.702-6.15-1.154-1.429-2.967-2.253-4.833-2.198-1.868-.11-3.68.714-4.889 2.142-1.153 1.428-1.757 3.46-1.757 6.096 0 2.692.604 4.779 1.757 6.262 1.154 1.483 3.021 2.306 4.889 2.252 2.086 0 3.734-.77 4.833-2.197Zm40.148-19.278a11.908 11.908 0 0 1 4.449 5.163 17.81 17.81 0 0 1 1.592 7.744 18.05 18.05 0 0 1-1.592 7.799 12.702 12.702 0 0 1-4.504 5.272 11.473 11.473 0 0 1-6.536 1.867 10.8 10.8 0 0 1-5.382-1.263 8.482 8.482 0 0 1-3.625-3.46v4.284h-8.458v-38.61l8.513-2.801V30.74a8.48 8.48 0 0 1 3.624-3.46 10.605 10.605 0 0 1 5.328-1.264c2.307-.054 4.614.605 6.591 1.813Zm-4.174 19.223c1.153-1.483 1.702-3.57 1.702-6.316 0-2.637-.549-4.669-1.702-6.097-1.154-1.428-2.747-2.142-4.834-2.142-1.866-.11-3.679.714-4.887 2.197-1.154 1.483-1.703 3.515-1.703 6.151 0 2.692.549 4.779 1.703 6.207a5.744 5.744 0 0 0 4.887 2.197 5.712 5.712 0 0 0 4.834-2.197Zm21.969-13.95v11.094c0 1.593.439 2.746 1.208 3.46.879.769 2.032 1.153 3.241 1.098.933 0 1.922-.164 2.801-.384v6.59c-1.593.55-3.241.824-4.889.77-3.514 0-6.206-.99-8.073-2.966-1.867-1.978-2.801-4.779-2.801-8.404V20.03l8.513-2.746v9.447h7.25v6.37h-7.25Z"/><path fill="#FF694A" d="M62.438 6.958c1.427 1.374 2.361 3.186 2.58 5.163 0 .824-.219 1.373-.713 2.417-.494 1.043-6.59 11.588-8.403 14.5-1.044 1.702-1.593 3.734-1.593 5.711 0 2.032.55 4.01 1.593 5.712 1.812 2.91 7.909 13.51 8.403 14.554.494 1.044.714 1.538.714 2.362-.22 1.977-1.099 3.79-2.527 5.108-1.373 1.428-3.185 2.361-5.107 2.526-.824 0-1.373-.22-2.362-.714-.989-.494-11.753-6.426-14.664-8.238-.22-.11-.44-.275-.714-.385l-14.39-8.513c.33 2.747 1.538 5.383 3.515 7.305.385.385.77.714 1.209 1.044-.33.164-.714.33-1.044.549-2.91 1.812-13.51 7.909-14.554 8.403-1.044.494-1.538.714-2.417.714-1.977-.22-3.79-1.099-5.108-2.526-1.428-1.373-2.361-3.186-2.581-5.163.055-.824.275-1.648.714-2.362.494-1.043 6.59-11.643 8.403-14.554a10.922 10.922 0 0 0 1.593-5.712c0-2.032-.55-4.01-1.593-5.712-1.812-3.02-7.964-13.62-8.403-14.664-.44-.714-.659-1.538-.714-2.362a8.405 8.405 0 0 1 2.526-5.163 8.405 8.405 0 0 1 5.163-2.526 5.579 5.579 0 0 1 2.417.714c.878.385 8.622 4.888 12.742 7.305l.933.549c.33.22.604.384.824.494l.44.275 14.664 8.678c-.33-3.296-2.032-6.316-4.669-8.349.33-.164.714-.33 1.044-.549 2.91-1.812 13.51-7.964 14.554-8.403.714-.44 1.538-.659 2.417-.714a8.408 8.408 0 0 1 5.108 2.526ZM35.416 38.703l3.13-3.13c.44-.44.44-1.099 0-1.538l-3.13-3.13a1.062 1.062 0 0 0-1.538 0l-3.13 3.13c-.44.44-.44 1.099 0 1.538l3.13 3.13c.385.385 1.099.385 1.538 0Z"/></svg>
